!!!COM: Henri Reber
!!!CNT: Francais
!!!TXO: Francais
!!!OTL: L'Amour
!!!LYR: Louise Berin
!!!ODT: 1851/
!!!ENC: Jacob Pegg
!!!YOR: Romantic French Song 1830-1870, David Tunley, ed., New York: Garland Publishing, Inc., 1995, vol. 3
!!NB: Vocal melody and text only encoded.
!!NB: First instance of melodic material only encoded.
**kern	**silbe
*clef G2	*
*k[]	*
*M6/8	*
=5	=5
{8a	{Dans
8a	le
8a	sen-
4.b	-tier,
=6	=6
(8cc	la
32ddq	|
32ccq)	|
8b	vi-
8a	-o-
4b}	-lette}
{8b	{E-
=7	=7
8cc	-pan-
8cc	-che
8cc	son
8b	ur-
8a	-ne
8cc	dis-
=8	=8
([4b	-cre\-
8b]	|
32ddq	|
32ccq)	|
8b}	-te}
{8b	{Sur
8b	les
=9	=9
8b	touf-
8a	-fes
8g#	des
(8a	verts
8b)	|
8cc	ga-
=10	=10
4b}	-zons.}
8r	.
{4cc	{Viens,
8ee	ma
=11	=11
8ee	belle,
8dd	et
8cc	tous
(8g	deux
8a)	|
8b	cau-
=12	=12
4.cc}	-sons!}
4r	.
8r	.
=13	=13
{4a	{Viens,
8r	.
4g	et
8dd	cau-
=14	=14
4cc	-sons!
8cc	A-
(8cc	-vec
8dd)	|
8cc	des
=15	=15
4cc	mots
8a	plus
(8dd	doux
8ee-)	|
8dd	en-
=16	=16
4dd	-co-
8bn}	-re}
{8een	{Que
8ff	ces
8een	par-
=17	=17
(8dd	-fums
8cc)	|
8b	qui
(8a	de
16bq	|
16aq	|
8g#)	|
8a	l'au-
=18	=18
4.b	-ro-
4b}	-re}
{8b	{An-
=19	=19
8b	-non-
8a	-cent
8g#	le
8a	joy-
8g#	-eux
8f#	re-
=20	=20
[4.b	-tour,
4b]}	|}
8r	.
=21	=21
{4.b	{Viens!
4r	.
8r	.
=22	=22
(4.b	Viens!
4.b##)}	|
=23	=23
*k[f#c#g#]	*
{4cc#	{Viens,
8dd	ma
8cc#	bel-
8b	-le,
8cc#	par-
=24	=24
(8a	-lons
8cc#)	|
8ff#	d'a-
[4.ee	-mour!
=25	=25
2.ee_	|
=26	=26
4.ee]}	|}
{4.ee	{Viens!
=27	=27
(8ee	viens,
8aa;)	|
8cc#	ma
8cc#	bel-
8b	-le,
8cc#	par-
=28	=28
(8dd	-lons
8b)	|
8cc#	d'a-
4.a}	-mour.}
!!29-55 repeated material
=56	=56
*k[]	*
*M4/4	*
{4.a	{Mais
8a	d'ou\
4.b	vient
8b	que
=57	=57
(4cc	la
32ddq	|
32ccq)	|
8b	vi-
8a	-o-
4b	-let-
8b}	-te}
8r	.
=58	=58
{8cc	{A
8cc	fer-
8cc	-me/
8cc	son
(8.b	ur-
16a)	|
8a	-ne
8cc	dis-
=59	=59
(4..b	cre\-
32dd	|
32cc)	|
4b}	-te;}
4r	.
=60	=60
{4.a	{Qu'ef-
8a	-fray-
4.b	-ée
8b	au
=61	=61
(4cc	bruit
32ddq	|
32ccq)	|
8b	de
8a	mes
2b}	pas,}
=62	=62
{4cc	{La
4ee	fau-
(8.ee	-vet-
16dd)	|
8dd	-te
8cc	ne
=63	=63
(4b	chan-
32ccq	|
32bq	|
8a)	|
8b	-te
4cc}	pas.}
4r	.
=64	=64
1r	.
=65	=65
1r;	.
=66	=66
{8.cc	{C'est
16cc	que
8.cc	main-
16cc	-te-
4b-	-nant
8cc	dans
8dd-	la
=67	=67
2cc	vi-
8b-}	-e,}
8r	.
{8.e-	{Re
16cc	fer-
=68	=68
4.cc	-mant
8cc	mon
(8b-	a^-
8ff-)	|
8ee-	-me
8dd-	tra-
=69	=69
2cc	-hi-
4b-}	-e,}
8r	.
{8b-	{Je
=70	=70
4.cc	mar-
8cc	-che
4cc	seul
8.b-	au
16cc	ha-
=71	=71
2a-}	-sard,}
4r	.
8r	.
{8a-	{Le
=72	=72
4.a-	coeur
8a-	e/-
4g}	-teint}
4r	.
=73	=73
4r	.
{4g	{Le
4.g	coeur
8g	e/-
=74	=74
4g	-teint
4r	.
4g	comme
8.g	un
16g	viel-
=75	=75
4g}	-lard!}
4r	.
{2cc;	{Ah!
=76	=76
4cc	c'est
8dd	que
8cc	l'en-
(4cc	-cens
4a)	|
=77	=77
4dd	des
8ee-	vi-
8dd	-o-
4dd	-let-
8bn}	-tes,}
8r	.
=78	=78
8r	.
{8een	{Le
8ff	doux
8een	ra-
(12dd	-ma-
12cc)	|
12b	-ge
(12a	des
16bq	|
16aq	|
12g#)	|
12a	fau-
=79	=79
4b	-vet-
4b}	-tes}
8r	.
{8b	{Et
8b	le
8b	re-
=80	=80
4.b	-flet
8b	do-
(8dd	-re/-
4cc)	|
8b	du
=81	=81
(2b	jour;
4b#;)}	|}
8r	.
{8cc#	{He/-
=82	=82
[4cc#	-las!
16cc#]	|
16r	.
8dd	he/-
2dd	-las
=83	=83
8r	.
8a	c'e/-
8.a	-tait
16b	l'a-
4ccn}	-mour!}
8r	.
{8ccn	{He/-
=85	=85
(4cc	-las
16b-)	|
16r	.
(16f	he/-
16b-)	|
(8a	-las!
4.cc)	|
=86	=86
8r	.
8bn	c'e/-
8.bn	-tait
16cc	l/'a-
2a}	-mour!}
*-	*-
